X:63
% %NRChange 2008-10-25
T:Rosenberg's Polska
M:3/4
L:1/8
Q:1/8=200
R:polska
O:Sweden
A:S\"odermanland (S\"ormland)
Z:Jim Phillips
N:As taught by Christer \"Oden at the Nisswa-Sta:mman fiddle workshops 6/9/06
K:Dm
%P:A
[V:1]G>G G,G D^F | G>G G,G D^F | G>A cB AG | ^F>G A/B/A/F/ DE/F/ |
[V:2]B,>D G,D G,A, | B,>D G,D G,A, | B,>D AG ^F~E | D>E ^F/G/F/D/ A,G,/A,/ |
[V:1]G>G G,G D^F | G>G G,G D^F | G>A cB AA/G/ | ^F/G/A/F/ G4 :||
[V:2]B,>D G,D G,A, | B,>D G,D G,A, | B,>D AG ^F~E |D [CD] [B,4D4] :||
%P:B
[V:1]g>g ^fg dd/c/ | B~B A/B/A/^F/ G2 | [G,D]>g ^fg dd/c/ | B/c/B/G/ A/B/A/^F/ G2 |
[V:2]d>d c{c}d BB/A/ | GG/D/ ~^F/E/D/C/ B,2 | [G,D]>d c{c}d BB/A/ | GD ^F/E/D/C/ B,2 |
[V:1]D/E/^F/G/ A>c BB/G/ | A/B/A/^F/ G4 :||
[V:2]A,/C/D/E/ ^F>F GG/D/ | ^F/E/D/C/ G,4 :||

